modules/material-icons/icons/youtube-play.svg

<?xml version="1.0" encoding="UTF-8" standalone="no"?>
<svg
   xmlns:dc="http://purl.org/dc/elements/1.1/"
   xmlns:cc="http://creativecommons.org/ns#"
   xmlns:rdf="http://www.w3.org/1999/02/22-rdf-syntax-ns#"
   xmlns:svg="http://www.w3.org/2000/svg"
   xmlns="http://www.w3.org/2000/svg"
   viewBox="0 0 480 480"
   height="480"
   width="480"
   xml:space="preserve"
   version="1.1"
   id="svg3390"><metadata
     id="metadata3396"><rdf:RDF><cc:Work
         rdf:about=""><dc:format>image/svg+xml</dc:format><dc:type
           rdf:resource="http://purl.org/dc/dcmitype/StillImage" /><dc:title></dc:title></cc:Work></rdf:RDF></metadata><defs
     id="defs3394"><clipPath
       id="clipPath3404"
       clipPathUnits="userSpaceOnUse"><path
         id="path3406"
         d="M 0,48 48,48 48,0 0,0 0,48 Z" /></clipPath><clipPath
       id="clipPath3416"
       clipPathUnits="userSpaceOnUse"><path
         id="path3418"
         d="M 0,48 48,48 48,0 0,0 0,48 Z" /></clipPath><clipPath
       id="clipPath3426"
       clipPathUnits="userSpaceOnUse"><path
         id="path3428"
         d="M 0,48 48,48 48,0 0,0 0,48 Z" /></clipPath><clipPath
       id="clipPath3434"
       clipPathUnits="userSpaceOnUse"><path
         id="path3436"
         d="M 0,48 48,48 48,0 0,0 0,48 Z" /></clipPath><clipPath
       id="clipPath3442"
       clipPathUnits="userSpaceOnUse"><path
         id="path3444"
         d="m -2.13623e-4,48.0002 48.000013623,0 0,-48.000047412 -48.000013623,0 0,48.000047412 z" /></clipPath><clipPath
       id="clipPath3446"
       clipPathUnits="userSpaceOnUse"><path
         id="path3448"
         d="m -2.13623e-4,47.9998 48.000013623,0 0,-47.999952588 -48.000013623,0 0,47.999952588 z" /></clipPath><clipPath
       id="clipPath3450"
       clipPathUnits="userSpaceOnUse"><path
         id="path3452"
         d="M 48,48 0,48 0,0 48,0 48,48 Z" /></clipPath><clipPath
       id="clipPath3658"
       clipPathUnits="userSpaceOnUse"><path
         id="path3660"
         d="M 0,48 48,48 48,0 0,0 0,48 Z" /></clipPath><clipPath
       id="clipPath3668"
       clipPathUnits="userSpaceOnUse"><path
         id="path3670"
         d="m -2.28882e-4,48.0001 48.000028882,0 0,-47.99997793 -48.000028882,0 0,47.99997793 z" /></clipPath><clipPath
       id="clipPath3676"
       clipPathUnits="userSpaceOnUse"><path
         id="path3678"
         d="m -2.28882e-4,48.0001 48.000028882,0 0,-47.99997793 -48.000028882,0 0,47.99997793 z" /></clipPath><clipPath
       id="clipPath3680"
       clipPathUnits="userSpaceOnUse"><path
         id="path3682"
         d="M 0,0 48,0 48,48 0,48 0,0 Z" /></clipPath></defs><g
     transform="matrix(1.25,0,0,-1.25,0,480)"
     id="g3398"><g
       id="g3412"><g
         clip-path="url(#clipPath3416)"
         id="g3414"><g
           transform="matrix(1,0,0,-1,0,48)"
           id="g3420"><g
             id="g3422"><g
               clip-path="url(#clipPath3426)"
               id="g3424" /></g></g></g></g><path
       id="path3762"
       d=""
       style="fill:#000000" /><path
       id="path3760"
       d=""
       style="fill:#000000" /><path
       id="path3758"
       d=""
       style="fill:#000000" /><path
       style="fill:#000000"
       d="m 348.8064,255.67241 c 0,0 -3.1232,21.95029 -12.7232,31.61326 -12.1664,12.68225 -25.8112,12.74595 -32.064,13.49122 C 259.2384,304 192.0704,304 192.0704,304 l -0.1408,0 c 0,0 -67.168,0 -111.948799,-3.22311 -6.2528,-0.74527 -19.8912,-0.8026 -32.064,-13.49122 -9.5936,-9.66297 -12.7168,-31.61326 -12.7168,-31.61326 0,0 -3.2,-25.77217 -3.2,-51.54433 l 0,-24.16061 c 0,-25.77217 3.2,-51.54433 3.2,-51.54433 0,0 3.1232,-21.9503 12.7168,-31.61327 12.1728,-12.68862 28.16,-12.28732 35.2832,-13.61224 C 108.8,80.75164 192,80 192,80 c 0,0 67.2384,0.10192 112.0192,3.32503 6.2528,0.74527 19.8912,0.80259 32.064,13.49121 9.5936,9.66297 12.7232,31.61327 12.7232,31.61327 0,0 3.1936,25.77216 3.1936,51.54433 l 0,24.16061 c 0,25.77216 -3.1936,51.54433 -3.1936,51.54433 z m -113.7152,-66.20759 -0.006,0.006 -75.8208,-39.09777 0,89.48917 86.464,-44.90065 -10.6368,-5.49712 z"
       id="path4521" /></g><style
     type="text/css"
     id="style3999">
	.st0{fill:#FFFFFF;}
</style><style
     type="text/css"
     id="style4048">
	.st0{fill:#FFFFFF;}
</style></svg>

<svg xmlns="http://www.w3.org/2000/svg" viewBox="0 0 480 480" height="480" width="480" xml:space="preserve" version="1.1" id="svg3390"><defs id="defs3394"><clipPath id="clipPath3404" clipPathUnits="userSpaceOnUse"><path id="path3406" d="M0 48h48V0H0v48z"/></clipPath><clipPath id="clipPath3416" clipPathUnits="userSpaceOnUse"><path id="path3418" d="M0 48h48V0H0v48z"/></clipPath><clipPath id="clipPath3426" clipPathUnits="userSpaceOnUse"><path id="path3428" d="M0 48h48V0H0v48z"/></clipPath><clipPath id="clipPath3434" clipPathUnits="userSpaceOnUse"><path id="path3436" d="M0 48h48V0H0v48z"/></clipPath><clipPath id="clipPath3442" clipPathUnits="userSpaceOnUse"><path id="path3444" d="M0 48h48V0H0v48z"/></clipPath><clipPath id="clipPath3446" clipPathUnits="userSpaceOnUse"><path id="path3448" d="M0 48h48V0H0v48z"/></clipPath><clipPath id="clipPath3450" clipPathUnits="userSpaceOnUse"><path id="path3452" d="M48 48H0V0h48v48z"/></clipPath><clipPath id="clipPath3658" clipPathUnits="userSpaceOnUse"><path id="path3660" d="M0 48h48V0H0v48z"/></clipPath><clipPath id="clipPath3668" clipPathUnits="userSpaceOnUse"><path id="path3670" d="M0 48h48V0H0v48z"/></clipPath><clipPath id="clipPath3676" clipPathUnits="userSpaceOnUse"><path id="path3678" d="M0 48h48V0H0v48z"/></clipPath><clipPath id="clipPath3680" clipPathUnits="userSpaceOnUse"><path id="path3682" d="M0 0h48v48H0V0z"/></clipPath></defs><g transform="matrix(1.25 0 0 -1.25 0 480)" id="g3398"><path d="M348.806 255.672s-3.123 21.95-12.723 31.614c-12.166 12.682-25.811 12.746-32.064 13.49C259.24 304 192.07 304 192.07 304h-.14s-67.168 0-111.95-3.223c-6.252-.745-19.89-.803-32.063-13.491-9.594-9.663-12.717-31.614-12.717-31.614S32 229.9 32 204.128v-24.16c0-25.773 3.2-51.545 3.2-51.545s3.123-21.95 12.717-31.613C60.09 84.12 76.077 84.523 83.2 83.198 108.8 80.752 192 80 192 80s67.238.102 112.02 3.325c6.252.745 19.89.803 32.063 13.491 9.594 9.663 12.723 31.614 12.723 31.614S352 154.202 352 179.974v24.16c0 25.773-3.194 51.545-3.194 51.545zm-113.715-66.207l-.006.006-75.82-39.098v89.49l86.463-44.901-10.636-5.498z" id="path4521" fill="#000"/></g><style type="text/css" id="style3999"></style><style type="text/css" id="style4048"></style></svg>
